X:1
T:Colosseum Gates - Brass Sustained
M:4/4
L:1/2
Q:1/4=95
K:Dm
%%MIDI program 61
% Bars 76-100: Building brass swells, anticipation
z4 | z4 | z4 | [D,A,]4 |
z4 | z4 | [D,A,]4 | z4 |
z4 | [D,A,]4 | z4 | [D,A,F]4 |
z4 | [D,A,]4 | [D,A,F]4 | z4 |
[D,A,]4 | z4 | [D,A,F]4 | [G,B,D]4 |
[D,A,]4 | [D,A,F]4 | [A,CE]4 | [D,A,D]4 |
[D,A,DF]4 |
